X:1
T:Title
%%score ( 1 2 3 ) { ( 4 6 ) | 5 }
L:1/8
Q:1/4=120
M:3/4
K:D
V:1 treble nm="Grand Piano, PianoGrd"
V:2 treble 
V:3 treble 
V:4 bass nm="Grand Piano"
V:6 bass 
V:5 bass 
V:1
 A2 F2 [CE]2 | [B,D]4 [CD]2 | z2 B4 | z2 .A4 | A2 F2 [EA]2 | d2 c2 [FB]2 | %6
 [Ec]2 z/16 E3/16-E3/4- E2- E/ z/ | A4 z2 | [GB][Ac] [Bd]2 [Ac][GB] | [Ac]2 [FA]2 [CF]2 | %10
 [EG][FA] [GB]2 [FA][EG] | A2 z2 z2 | z2 B4 | A2 d4 | [B,DG]2 [CF]2 z/16 E3/16-E3/4-E/ z/ | %15
 [A,D]6 | A2 F2 z/16 C3/16-C3/4-C/ z/ | .[B,D]4 [CD]2 | G2 B4 | B2 .A4 | A2 z2 A2 | d2 z2 z2 | %22
 [CA]2 z/16 ^G3/16-G3/4- G2- G/ z/ | [A,CF]4 z2 | A2 F2 [CE]2 | [B,D]4 [CD]2 | z2 B4 | z2 .A4 | %28
 A2 F2 [EA]2 | d2 c2 [FB]2 | [Ec]2 z/16 E3/16-E3/4- E2- E/ z/ | A4 z2 | [GB][Ac] [Bd]2 [Ac][GB] | %33
 [Ac]2 [FA]2 [CF]2 | [EG][FA] [GB]2 [FA][EG] | A2 z2 z2 | z2 B4 | A2 d4 | %38
 [B,DG]2 [CF]2 z/16 E3/16-E3/4-E/ z/ | [A,D]6 | A2 F2 z/16 C3/16-C3/4-C/ z/ | .[B,D]4 [CD]2 | %42
 G2 B4 | B2 .A4 | A2 z2 A2 | d2 z2 z2 | [CA]2 z/16 ^G3/16-G3/4- G2- G/ z/ | [A,CF]4 z2 | %48
 A2 F2 [CE]2 | [B,D]4 [CD]2 | z2 B4 | z2 .A4 | A2 F2 [EA]2 | d2 c2 [FB]2 | %54
 [Ec]2 z/16 E3/16-E3/4- E2- E/ z/ | A4 z2 | [GB][Ac] [Bd]2 [Ac][GB] | [Ac]2 [FA]2 [CF]2 | %58
 [EG][FA] [GB]2 [FA][EG] | A2 z2 z2 | z2 B4 | A2 d4 | [B,DG]2 [CF]2 z/16 E3/16-E3/4-E/ z/ | %63
 [A,D]6 | A2 F2 z/16 C3/16-C3/4-C/ z/ | .[B,D]4 [CD]2 | G2 B4 | B2 .A4 | A2 z2 A2 | d2 z2 z2 | %70
 [CA]2 z/16 ^G3/16-G3/4- G2- G/ z/ | [A,CF]4 z2 | A2 F2 [CE]2 | [B,D]4 [CD]2 | z2 B4 | z2 .A4 | %76
 A2 F2 [EA]2 | d2 c2 [FB]2 | [Ec]2 z/16 E3/16-E3/4- E2- E/ z/ | A4 z2 | [GB][Ac] [Bd]2 [Ac][GB] | %81
 [Ac]2 [FA]2 [CF]2 | [EG][FA] [GB]2 [FA][EG] | A2 z2 z2 | z2 B4 | A2 d4 | %86
 [B,DG]2 [CF]2 z/16 E3/16-E3/4-E/ z/ | [A,D]6 | A2 F2 z/16 C3/16-C3/4-C/ z/ | .[B,D]4 [CD]2 | %90
 G2 B4 | B2 .A4 | A2 z2 A2 | d2 z2 z2 | [CA]2 z/16 ^G3/16-G3/4- G2- G/ z/ | [A,CF]4 z2 | %96
 A2 F2 [CE]2 | [B,D]4 [CD]2 | z2 B4 | z2 .A4 | A2 F2 [EA]2 | d2 c2 [FB]2 | %102
 [Ec]2 z/16 E3/16-E3/4- E2- E/ z/ | A4 z2 | [GB][Ac] [Bd]2 [Ac][GB] | [Ac]2 [FA]2 [CF]2 | %106
 [EG][FA] [GB]2 [FA][EG] | A2 z2 z2 | z2 B4 | A2 d4 | [B,DG]2 [CF]2 z/16 E3/16-E3/4-E/ z/ | %111
 [A,D]6 | [B,D]6 | [A,D]6 |] %114
V:2
 D4 z2 | x6 | G2 z C DE | B2 z2 C2 | D4 z2 | F4 z2 | z2 [DB]4 | [CE]2 [A,C]2 [CE]2 | x6 | x6 | x6 | %11
 C2- [CF]2 E2 | [B,D]2 [B,D]2 [CE]2 | D4 [DB]2 | z2 z2 [B,C]2 | x6 | D4 E2 | x6 | [B,D]3 C DE | %19
 D4 C2 | D2- [DF]2 z/16 D3/16-D3/4-D/ z/ | D2- [Dc]2 [FB]2 | z2 [B,C]4 | x6 | D4 z2 | x6 | %26
 G2 z C DE | B2 z2 C2 | D4 z2 | F4 z2 | z2 [DB]4 | [CE]2 [A,C]2 [CE]2 | x6 | x6 | x6 | %35
 C2- [CF]2 E2 | [B,D]2 [B,D]2 [CE]2 | D4 [DB]2 | z2 z2 [B,C]2 | x6 | D4 E2 | x6 | [B,D]3 C DE | %43
 D4 C2 | D2- [DF]2 z/16 D3/16-D3/4-D/ z/ | D2- [Dc]2 [FB]2 | z2 [B,C]4 | x6 | D4 z2 | x6 | %50
 G2 z C DE | B2 z2 C2 | D4 z2 | F4 z2 | z2 [DB]4 | [CE]2 [A,C]2 [CE]2 | x6 | x6 | x6 | %59
 C2- [CF]2 E2 | [B,D]2 [B,D]2 [CE]2 | D4 [DB]2 | z2 z2 [B,C]2 | x6 | D4 E2 | x6 | [B,D]3 C DE | %67
 D4 C2 | D2- [DF]2 z/16 D3/16-D3/4-D/ z/ | D2- [Dc]2 [FB]2 | z2 [B,C]4 | x6 | D4 z2 | x6 | %74
 G2 z C DE | B2 z2 C2 | D4 z2 | F4 z2 | z2 [DB]4 | [CE]2 [A,C]2 [CE]2 | x6 | x6 | x6 | %83
 C2- [CF]2 E2 | [B,D]2 [B,D]2 [CE]2 | D4 [DB]2 | z2 z2 [B,C]2 | x6 | D4 E2 | x6 | [B,D]3 C DE | %91
 D4 C2 | D2- [DF]2 z/16 D3/16-D3/4-D/ z/ | D2- [Dc]2 [FB]2 | z2 [B,C]4 | x6 | D4 z2 | x6 | %98
 G2 z C DE | B2 z2 C2 | D4 z2 | F4 z2 | z2 [DB]4 | [CE]2 [A,C]2 [CE]2 | x6 | x6 | x6 | %107
 C2- [CF]2 E2 | [B,D]2 [B,D]2 [CE]2 | D4 [DB]2 | z2 z2 [B,C]2 | x6 | x6 | x6 |] %114
V:3
 x6 | x6 | [B,D]4 z2 | D4 z2 | x6 | x6 | x6 | x6 | x6 | x6 | x6 | x6 | x6 | x6 | x6 | x6 | x6 | %17
 x6 | x6 | x6 | x6 | x6 | x6 | x6 | x6 | x6 | [B,D]4 z2 | D4 z2 | x6 | x6 | x6 | x6 | x6 | x6 | %34
 x6 | x6 | x6 | x6 | x6 | x6 | x6 | x6 | x6 | x6 | x6 | x6 | x6 | x6 | x6 | x6 | [B,D]4 z2 | %51
 D4 z2 | x6 | x6 | x6 | x6 | x6 | x6 | x6 | x6 | x6 | x6 | x6 | x6 | x6 | x6 | x6 | x6 | x6 | x6 | %70
 x6 | x6 | x6 | x6 | [B,D]4 z2 | D4 z2 | x6 | x6 | x6 | x6 | x6 | x6 | x6 | x6 | x6 | x6 | x6 | %87
 x6 | x6 | x6 | x6 | x6 | x6 | x6 | x6 | x6 | x6 | x6 | [B,D]4 z2 | D4 z2 | x6 | x6 | x6 | x6 | %104
 x6 | x6 | x6 | x6 | x6 | x6 | x6 | x6 | x6 | x6 |] %114
V:4
 F,2 A,2 G,2 | F,4 A,2 | G,6 | F,4 G,2 | A,4 A,2 | A,6 | A,2 F,2 ^G,2 | A,2 E,2 A,2 | %8
 B,A, G,2 A,B, | A,4 A,2 | B,A, z/16 G,3/16-G,3/4-G,/ z/ A,B, | A,4 z2 | G,4 E,2 | A,4 F,2 | %14
 G,2 z/16 A,3/16-A,3/4-A,/ z/ G,2 | F,6 | z2 z2 G,2 | .F,4 A,2 | G,6 | F,4 G,2 | A,4 F,2 | %21
 F,4 F,2 | F,2 ^D,2 =F,2 | F,2 F,2 E,2 | F,2 A,2 G,2 | F,4 A,2 | G,6 | F,4 G,2 | A,4 A,2 | A,6 | %30
 A,2 F,2 ^G,2 | A,2 E,2 A,2 | B,A, G,2 A,B, | A,4 A,2 | B,A, z/16 G,3/16-G,3/4-G,/ z/ A,B, | %35
 A,4 z2 | G,4 E,2 | A,4 F,2 | G,2 z/16 A,3/16-A,3/4-A,/ z/ G,2 | F,6 | z2 z2 G,2 | .F,4 A,2 | G,6 | %43
 F,4 G,2 | A,4 F,2 | F,4 F,2 | F,2 ^D,2 =F,2 | F,2 F,2 E,2 | F,2 A,2 G,2 | F,4 A,2 | G,6 | %51
 F,4 G,2 | A,4 A,2 | A,6 | A,2 F,2 ^G,2 | A,2 E,2 A,2 | B,A, G,2 A,B, | A,4 A,2 | %58
 B,A, z/16 G,3/16-G,3/4-G,/ z/ A,B, | A,4 z2 | G,4 E,2 | A,4 F,2 | %62
 G,2 z/16 A,3/16-A,3/4-A,/ z/ G,2 | F,6 | z2 z2 G,2 | .F,4 A,2 | G,6 | F,4 G,2 | A,4 F,2 | %69
 F,4 F,2 | F,2 ^D,2 =F,2 | F,2 F,2 E,2 | F,2 A,2 G,2 | F,4 A,2 | G,6 | F,4 G,2 | A,4 A,2 | A,6 | %78
 A,2 F,2 ^G,2 | A,2 E,2 A,2 | B,A, G,2 A,B, | A,4 A,2 | B,A, z/16 G,3/16-G,3/4-G,/ z/ A,B, | %83
 A,4 z2 | G,4 E,2 | A,4 F,2 | G,2 z/16 A,3/16-A,3/4-A,/ z/ G,2 | F,6 | z2 z2 G,2 | .F,4 A,2 | G,6 | %91
 F,4 G,2 | A,4 F,2 | F,4 F,2 | F,2 ^D,2 =F,2 | F,2 F,2 E,2 | F,2 A,2 G,2 | F,4 A,2 | G,6 | %99
 F,4 G,2 | A,4 A,2 | A,6 | A,2 F,2 ^G,2 | A,2 E,2 A,2 | B,A, G,2 A,B, | A,4 A,2 | %106
 B,A, z/16 G,3/16-G,3/4-G,/ z/ A,B, | A,4 z2 | G,4 E,2 | A,4 F,2 | %110
 G,2 z/16 A,3/16-A,3/4-A,/ z/ G,2 | F,6 | G,6 | F,6 |] %114
V:5
 D,4 A,,2 | B,,4 F,,2 | G,,3 A,, B,,C, | D,4 E,2 | F,2 D,2 C,2 | B,,2 C,2 D,2 | E,4 E,2 | A,,4 z2 | %8
 G,F, E,2 F,G, | F,4 D,2 | G,F, z2 F,G, | F,2 D,2 F,2 | G,,4 G,,2 | F,,4 B,,2 | E,,2 z2 z2 | D,6 | %16
 D,4 z2 | .B,,4 F,,2 | G,,3 A,, B,,C, | D,4 E,2 | F,2 D,2 C,2 | B,,2 C,2 D,2 | C,6 | F,,2 z2 z2 | %24
 D,4 A,,2 | B,,4 F,,2 | G,,3 A,, B,,C, | D,4 E,2 | F,2 D,2 C,2 | B,,2 C,2 D,2 | E,4 E,2 | A,,4 z2 | %32
 G,F, E,2 F,G, | F,4 D,2 | G,F, z2 F,G, | F,2 D,2 F,2 | G,,4 G,,2 | F,,4 B,,2 | E,,2 z2 z2 | D,6 | %40
 D,4 z2 | .B,,4 F,,2 | G,,3 A,, B,,C, | D,4 E,2 | F,2 D,2 C,2 | B,,2 C,2 D,2 | C,6 | F,,2 z2 z2 | %48
 D,4 A,,2 | B,,4 F,,2 | G,,3 A,, B,,C, | D,4 E,2 | F,2 D,2 C,2 | B,,2 C,2 D,2 | E,4 E,2 | A,,4 z2 | %56
 G,F, E,2 F,G, | F,4 D,2 | G,F, z2 F,G, | F,2 D,2 F,2 | G,,4 G,,2 | F,,4 B,,2 | E,,2 z2 z2 | D,6 | %64
 D,4 z2 | .B,,4 F,,2 | G,,3 A,, B,,C, | D,4 E,2 | F,2 D,2 C,2 | B,,2 C,2 D,2 | C,6 | F,,2 z2 z2 | %72
 D,4 A,,2 | B,,4 F,,2 | G,,3 A,, B,,C, | D,4 E,2 | F,2 D,2 C,2 | B,,2 C,2 D,2 | E,4 E,2 | A,,4 z2 | %80
 G,F, E,2 F,G, | F,4 D,2 | G,F, z2 F,G, | F,2 D,2 F,2 | G,,4 G,,2 | F,,4 B,,2 | E,,2 z2 z2 | D,6 | %88
 D,4 z2 | .B,,4 F,,2 | G,,3 A,, B,,C, | D,4 E,2 | F,2 D,2 C,2 | B,,2 C,2 D,2 | C,6 | F,,2 z2 z2 | %96
 D,4 A,,2 | B,,4 F,,2 | G,,3 A,, B,,C, | D,4 E,2 | F,2 D,2 C,2 | B,,2 C,2 D,2 | E,4 E,2 | A,,4 z2 | %104
 G,F, E,2 F,G, | F,4 D,2 | G,F, z2 F,G, | F,2 D,2 F,2 | G,,4 G,,2 | F,,4 B,,2 | E,,2 z2 z2 | D,6 | %112
 G,,6 | D,6 |] %114
V:6
 x6 | x6 | x6 | x6 | x6 | x6 | x6 | x6 | x6 | x6 | z2 E,2 z2 | x6 | x6 | x6 | z2 A,,4 | x6 | %16
 F,2 A,2 z/16 A,,3/16-A,,3/4-A,,/ z/ | x6 | x6 | x6 | x6 | x6 | x6 | x6 | x6 | x6 | x6 | x6 | x6 | %29
 x6 | x6 | x6 | x6 | x6 | z2 E,2 z2 | x6 | x6 | x6 | z2 A,,4 | x6 | %40
 F,2 A,2 z/16 A,,3/16-A,,3/4-A,,/ z/ | x6 | x6 | x6 | x6 | x6 | x6 | x6 | x6 | x6 | x6 | x6 | x6 | %53
 x6 | x6 | x6 | x6 | x6 | z2 E,2 z2 | x6 | x6 | x6 | z2 A,,4 | x6 | %64
 F,2 A,2 z/16 A,,3/16-A,,3/4-A,,/ z/ | x6 | x6 | x6 | x6 | x6 | x6 | x6 | x6 | x6 | x6 | x6 | x6 | %77
 x6 | x6 | x6 | x6 | x6 | z2 E,2 z2 | x6 | x6 | x6 | z2 A,,4 | x6 | %88
 F,2 A,2 z/16 A,,3/16-A,,3/4-A,,/ z/ | x6 | x6 | x6 | x6 | x6 | x6 | x6 | x6 | x6 | x6 | x6 | x6 | %101
 x6 | x6 | x6 | x6 | x6 | z2 E,2 z2 | x6 | x6 | x6 | z2 A,,4 | x6 | x6 | x6 |] %114

